static/NYK.svg

<?xml version="1.0" encoding="UTF-8" standalone="no"?>
<svg width="150px" height="150px" viewBox="0 0 150 150" version="1.1" xmlns="http://www.w3.org/2000/svg" xmlns:xlink="http://www.w3.org/1999/xlink">
    <!-- Generator: Sketch 39.1 (31720) - http://www.bohemiancoding.com/sketch -->
    <title>NYK</title>
    <desc>Created with Sketch.</desc>
    <defs></defs>
    <g id="Page-1" stroke="none" stroke-width="1" fill="none" fill-rule="evenodd">
        <g id="NYK">
            <g id="Page-1">
                <g id="Group-3" transform="translate(13.000000, 25.128697)" fill="#FEFEFE">
                    <path d="M61.2805482,99.6702323 L53.1313803,89.0888065 C42.7618368,85.6698325 35.5449669,76.3033496 34.8775557,65.4052079 L29.8213321,58.8424394 C25.0144137,60.9140728 20.1997045,64.1954571 20.1997045,64.1954571 L5.03622733,48.9827104 L11.4272733,34.9771186 L0.000779079151,20.1407966 L18.1818895,20.1407966 L21.7007304,12.4773106 L30.7042884,8.845462 L31.7015097,6.13260872 L38.9988845,9.46331758 L40.733634,3.40158321 L41.9230282,3.00698637 C47.6960047,1.08332677 54.3441468,0.0501060944 61.1532986,0.0111656167 C61.3480684,-0.00181454259 63.5113115,0.0371259352 63.5632501,0.0371259352 C63.8177493,0.0371259352 64.8798939,0.0942386359 64.8798939,0.0942386359 C70.6372888,0.372014044 76.049292,1.3299498 80.9626845,2.94468161 L82.1702571,3.34187448 L83.7647725,9.12064138 L86.3928661,7.13727305 L101.138238,12.3786614 L104.698629,20.1433926 L122.970632,20.1433926 L111.419485,35.0394234 L117.714445,48.8425247 L102.314647,64.6938952 C102.314647,64.6938952 96.6689202,60.5765887 92.7968968,59.0423339 L88.156182,65.0261873 C87.6264081,76.1839322 80.0329833,85.9709722 69.357002,89.2549525 L61.2805482,99.6702323 Z" id="Fill-1"></path>
                </g>
                <polygon id="Fill-4" fill="#B3B1B1" points="74.2943119 117.466697 126.827619 49.7569941 22.1089934 49.7543981"></polygon>
                <path d="M126.827619,49.7556961 L74.2943119,117.465399 L22.1089934,49.7531001 L126.827619,49.7556961 Z M17.7928949,47.629546 L74.289118,120.936293 L131.161896,47.6321421 L17.7928949,47.629546 Z" id="Fill-6" fill="#0F4B90"></path>
                <path d="M119.243284,54.4659363 L119.225105,54.4218038 L119.183554,54.3958435 L115.823126,52.1372957 L117.074847,49.7463504 L117.111204,49.6736615 L117.077443,49.5983766 L112.45231,39.4608722 L112.421147,39.3985675 L112.356224,39.3752032 L99.8857636,34.9359887 L99.7974679,34.9048363 L99.7247539,34.959353 L96.4188613,37.4826959 L96.3825043,37.5112523 L96.3643258,37.5527888 L95.7981949,38.9390698 C95.7981949,38.9390698 90.6277063,37.6410539 83.0342815,36.8830126 C82.2603962,36.8051316 80.1932395,36.6363896 76.8951378,36.3767864 L76.5757154,36.3508261 L76.2433083,36.3274618 L76.1654003,36.3196737 L76.1108648,36.3741903 L73.6463777,38.8300365 L73.6489747,36.3092896 C73.6489747,36.3092896 66.6580378,36.7038864 62.0796493,37.326934 C57.5012608,37.9473856 53.0007802,39.0818516 53.0007802,39.0818516 L52.1723594,37.3087618 L52.1463901,37.2542451 L52.0892576,37.2256888 L46.2046131,34.5336038 L46.0384096,34.4609149 L45.9760832,34.6296569 L45.2930905,36.4936078 L45.1372747,36.1197792 L45.0723514,35.9666133 L44.9191325,36.0289181 L36.4972869,39.4037595 L36.4349606,39.4297198 L36.4063943,39.4920246 L20.871556,73.6090752 L33.6250818,86.3789558 L34.2197788,86.0388757 C34.6041246,85.820809 35.14948,85.5014971 35.7623556,85.1380526 C37.3049323,84.2294415 39.4188337,82.9859422 40.4290397,82.4978882 L40.6341972,82.399239 C41.9404532,81.7684033 42.5974766,81.4490914 48.7963498,78.7985428 L49.3131389,78.6038405 C49.3209297,78.6038405 50.0117132,78.3338531 51.2868061,77.9106999 C54.691382,76.7814261 63.5365273,74.1490498 72.1089949,74.1490498 L72.2050813,74.1490498 C72.5478761,74.1490498 72.888074,74.1542419 73.2308689,74.164626 C79.0531871,74.32558 85.857145,75.5612911 90.5394107,76.5685515 C95.047682,77.5394674 98.4366763,78.4740389 99.4001376,78.7440262 L100.04937,78.9439206 C104.31353,80.5924009 109.52557,83.3104462 114.35586,86.4023201 L114.968736,86.796917 L127.878077,73.5052339 L119.243284,54.4659363 Z" id="Fill-8" fill="#0F4B90"></path>
                <path d="M117.855744,55.6484288 L105.44761,47.3696832 L103.28956,41.3131409 L107.133018,42.6786537 L108.685982,46.4636681 L114.526479,48.3354071 L111.119306,40.8069147 L100.095336,36.8920987 L98.072327,38.4575059 L101.736596,50.362908 L113.534451,58.6987662 L116.559875,66.2324507 L111.654274,64.0206315 L109.968866,59.332198 L103.949181,57.5591083 L107.166778,68.1561103 C108.158805,68.5221508 109.145639,68.8985754 110.122085,69.2931722 C112.79952,70.3783135 115.425017,71.5776803 117.988187,72.8912724 C119.764487,73.7972875 121.512222,74.7630113 123.228793,75.7780598 L125.79456,73.1456835 L117.855744,55.6484288 Z" id="Fill-10" fill="#F26729"></path>
                <path d="M34.1758907,61.2615689 L38.3102041,57.5700116 L39.2970377,58.7200537 L35.2146629,70.4567137 C37.4454262,69.4728176 39.7177404,68.5719946 42.0264116,67.7568406 L44.9843155,58.0788338 L42.4315328,53.8628781 L47.7188833,48.8395565 L50.8092306,38.5462902 L47.0125182,36.8406973 L43.6001515,46.5446643 L38.1310159,51.2512701 L43.1171224,38.6734958 L37.7570579,40.81003 L22.9883141,73.1981233 L25.2995823,75.5137837 C26.6707616,74.716802 28.0601194,73.9483765 29.4676557,73.2162956 L34.1758907,61.2615689 Z" id="Fill-12" fill="#F26729"></path>
                <path d="M71.5999965,38.1659715 L67.0709497,38.4048065 L64.9414667,62.6984725 C66.8657922,62.5167503 68.8056993,62.3921408 70.758591,62.3246439 L71.5999965,38.1659715 Z" id="Fill-14" fill="#F26729"></path>
                <path d="M85.0378134,57.6561999 L79.7790291,57.34208 L78.9350267,42.4642215 L83.3913595,42.6796921 L82.8693764,38.5805578 L76.8782578,38.1548086 L74.1956285,40.8287214 L74.1904347,59.4370777 L77.0029104,62.316077 C79.9062787,62.4043421 82.7810808,62.6224088 85.6195258,62.965085 L85.0378134,57.6561999 Z" id="Fill-16" fill="#F26729"></path>
                <path d="M55.239594,47.755194 L57.1379502,56.9918753 L55.9096021,63.9907772 C57.7482289,63.6377168 59.5998403,63.3339811 61.4696303,63.0873581 L61.482615,63.0847621 L64.4093556,38.7235992 L60.2049252,39.3362627 L58.8233581,47.3112725 L57.260006,39.8035484 L52.3154503,41.0418556 L45.4361814,66.6205574 C47.4202363,66.0001058 49.4276636,65.444555 51.4584632,64.953905 L55.239594,47.755194 Z" id="Fill-18" fill="#F26729"></path>
                <path d="M91.7887939,56.3119746 L93.2690443,54.31303 L95.4296905,56.0939079 L97.4189393,65.151463 C99.5068714,65.6758614 101.571431,66.2677567 103.607425,66.9271488 L99.896411,53.6406578 L96.0685354,50.5124394 L98.2473601,47.6074798 L96.4372995,40.862989 L91.8173602,39.8349604 L93.6352115,46.6261797 L90.7578125,50.4709029 L88.6335234,39.3027739 L84.3563788,38.7602032 C84.3563788,38.7602032 86.5014434,55.1411642 87.5142463,63.2096312 C89.4515565,63.4848106 91.3706881,63.8196987 93.2716413,64.2065074 L91.7887939,56.3119746 Z" id="Fill-20" fill="#F26729"></path>
                <path d="M65.6060212,67.3123999 C65.6060212,67.3123999 67.3875155,66.2687951 70.9531011,65.8741983 L70.8388362,63.0678878 C68.8833475,63.1327886 66.9408435,63.2548021 65.0139211,63.4365244 C65.1827215,64.5346458 65.4346238,66.1701459 65.6060212,67.3123999" id="Fill-22" fill="#B3B1B1"></path>
                <path d="M76.9359096,65.7041582 C78.3849968,65.8729003 79.9353643,66.3479741 81.2987529,66.7321868 C82.5296979,67.0281344 83.8567294,67.5577249 84.9422464,68.0405869 L85.5421373,63.7181938 C82.675126,63.3651335 79.9665275,63.1522589 77.034593,63.0613978 C76.9930421,63.8999161 76.9904452,65.0837066 76.9359096,65.7041582" id="Fill-24" fill="#B3B1B1"></path>
                <path d="M58.1772418,72.5530094 C59.8366804,71.3198943 60.8339017,70.0504347 62.5816359,68.9860617 C62.2492288,67.4180584 61.8077507,65.3853655 61.4857313,63.8329384 C59.5847781,64.0847535 57.7020035,64.3988734 55.8374074,64.7597218 C56.5515633,67.0857663 57.4630859,70.2036006 58.1772418,72.5530094" id="Fill-26" fill="#B3B1B1"></path>
                <path d="M86.3895157,68.9105171 C88.0074034,69.8476846 89.2695117,70.9068656 90.7160019,72.3113189 L91.0016643,72.5293855 L93.2817693,64.987913 C91.3184898,64.580336 89.4097459,64.2272757 87.4049156,63.9443082 L86.3895157,68.9105171 Z" id="Fill-28" fill="#B3B1B1"></path>
                <path d="M93.584052,75.4631611 L99.0194275,76.7430048 L103.592622,67.7036219 C101.483915,67.0156735 99.450518,66.4497385 97.2872749,65.9071679 L93.584052,75.4631611 Z" id="Fill-30" fill="#B3B1B1"></path>
                <path d="M49.8577153,76.7419664 C51.2756393,76.220164 53.2570973,75.5036592 55.1061118,75.0104132 L51.5768832,65.6828707 C49.4448033,66.1994811 47.5854011,66.7420517 45.5078567,67.3988478 C46.8219035,70.5244701 48.2943631,73.7435496 49.8577153,76.7419664" id="Fill-32" fill="#B3B1B1"></path>
                <path d="M41.6594653,80.0994144 C41.9736939,79.8294271 45.0588474,78.4976628 47.1701519,77.6046278 C45.5652488,74.7022642 43.6357295,71.4987609 42.0256325,68.5444766 C39.7247521,69.3648227 37.6290292,70.2163211 35.4034598,71.2054093 L41.6594653,80.0994144 Z" id="Fill-34" fill="#B3B1B1"></path>
                <path d="M33.962423,84.1806361 C34.9440628,83.5913368 35.9854319,82.9864614 37.1306782,82.3244733 L29.9190022,73.819873 C28.5478229,74.5311857 27.1948221,75.2762468 25.8599999,76.0498643 L33.962423,84.1806361 Z" id="Fill-36" fill="#B3B1B1"></path>
                <path d="M101.897346,77.8605965 C106.226429,79.5402291 112.279874,82.9332428 114.687229,84.5479746 C115.798715,83.4861976 121.820997,77.16486 122.649418,76.2977854 C117.642536,73.3616733 112.381154,70.8642907 106.906825,68.852366 L101.897346,77.8605965 Z" id="Fill-38" fill="#B3B1B1"></path>
                <polygon id="Fill-40" fill="#B3B1B1" points="76.1033337 65.5626745 74.036177 65.4899856 73.99982 60.46926 76.1500784 62.6992513"></polygon>
                <path d="M74.5077796,64.5686539 C61.0712612,64.5686539 50.1823316,75.4564114 50.1797346,88.8882802 C50.1823316,102.317553 61.0712612,113.205311 74.5077796,113.205311 C87.9417011,113.205311 98.8358246,102.317553 98.8358246,88.8882802 C98.8358246,75.4564114 87.9417011,64.5686539 74.5077796,64.5686539" id="Fill-42" fill="#0F4B90"></path>
                <path d="M76.0036116,66.3889914 C74.1364185,67.0405954 72.3393426,67.988147 70.5578483,68.8136851 C69.3424848,68.0867962 68.6465074,67.902478 67.8258774,67.3728875 C70.383854,66.4435081 73.1366003,66.3033223 76.0036116,66.3889914" id="Fill-44" fill="#F26729"></path>
                <path d="M93.4308331,76.7134101 C87.6994075,70.9398352 79.1009706,71.3577964 71.8061928,69.3147193 C71.8061928,69.3147193 76.0989189,67.2716422 78.3141006,66.7057073 C84.2740561,67.7207557 90.0444357,71.2877035 93.4308331,76.7134101" id="Fill-46" fill="#F26729"></path>
                <path d="M61.2091582,77.5812635 C55.7036655,86.0261551 54.9583465,96.4310508 59.3419651,105.548315 C53.6754628,100.789788 50.2994531,91.5764712 52.8418481,82.6305455 C54.9245864,79.7203938 57.6046186,77.1477262 61.2091582,77.5812635" id="Fill-48" fill="#F26729"></path>
                <path d="M67.1039307,83.5947117 C70.0722223,92.4160279 70.7292457,102.179704 78.4135631,111.063325 C72.4224444,112.278268 66.4858613,110.48441 61.7542539,107.485993 C55.8903848,98.9346639 56.443531,86.1777634 62.3048032,77.8860376 C65.1614267,78.7089797 66.7169881,82.4420735 67.1039307,83.5947117" id="Fill-50" fill="#F26729"></path>
                <path d="M62.985199,76.9545814 C63.8759461,75.698102 64.8809582,74.5117154 66.010623,73.4058059 C78.4732925,76.923429 90.3568465,89.8412835 92.39284,102.535879 C91.7981429,103.493815 90.375025,104.830771 89.4193545,105.786111 C86.3212165,108.569057 82.9088498,110.009855 79.6341204,110.791261 C73.8143992,104.755487 71.8978644,96.9206624 69.8410955,89.1974676 C68.2647587,83.2707269 67.168854,78.8003601 62.9903928,76.9857338 L62.985199,76.9545814 Z" id="Fill-52" fill="#F26729"></path>
                <path d="M92.1035419,76.8987667 C86.083857,71.5898816 77.6983684,72.2700419 70.6632837,69.7960236 C69.305089,70.6293498 67.9754606,71.6132459 66.840602,72.6308904 C79.3032715,76.5379183 90.6129038,88.7184997 93.3059207,101.306658 C95.2588125,98.4847716 96.4404159,95.2085794 96.9156541,91.7324927 C97.219495,86.3950512 97.1675564,81.5378757 92.1035419,76.8987667" id="Fill-54" fill="#F26729"></path>
                <path d="M64.983537,73.0164011 C63.7811581,74.1716353 62.8800233,75.3086972 61.9425314,76.6352695 L61.9139651,76.6274814 C58.6158634,75.8902084 56.013739,77.5958013 53.92321,79.7219514 C54.9204313,77.2038005 57.0109603,74.2157678 59.2235451,72.2635519 C61.2647325,72.3518169 62.7501767,72.3206646 64.983537,73.0164011" id="Fill-56" fill="#F26729"></path>
                <path d="M65.8672724,72.2440816 C67.0462789,71.1952848 68.1889283,70.2788855 69.6068523,69.4273871 L66.4100309,67.8438076 C64.2831448,68.7134783 62.0056368,69.8453482 60.4422846,71.2757617 C62.8600269,71.5587292 63.8936052,71.706703 65.8672724,72.2440816" id="Fill-58" fill="#F26729"></path>
                <path d="M71.0619125,34.7571221 L70.0776758,35.7358261 L68.392268,35.8370714 L67.7638108,35.2919047 L66.971747,35.9642769 L65.1357171,36.135615 L64.3280717,35.3671896 L65.3876194,28.1813734 L66.7769772,27.9918631 L66.0264643,34.3365649 L67.0236856,34.2275316 L67.7975709,27.8698496 L69.1713471,27.734856 L68.5974255,34.0484054 L69.5738713,33.9575443 L70.0750789,27.6751472 C70.6593883,27.6128425 70.9606322,27.6180345 71.4722275,27.5894782 L71.0619125,34.7571221 Z" id="Fill-60" fill="#0F4B90"></path>
                <path d="M75.5696645,27.4918674 L75.5826491,32.0141549 L76.4682024,32.0089628 L76.4136669,27.5126356 C76.4136669,27.5126356 77.3459649,27.541192 77.7640708,27.5775364 L77.943259,32.6475866 L77.0888688,33.5016811 L76.8084003,33.5146613 L76.8499512,35.6849439 L75.3411346,35.6408113 L75.3229561,33.4679327 L75.0217121,33.4445684 L74.1075926,32.512593 L74.1647251,27.4685031 C74.652948,27.4685031 75.5696645,27.4918674 75.5696645,27.4918674" id="Fill-62" fill="#0F4B90"></path>
                <path d="M64.3763746,28.3298665 L64.1400539,29.8147967 L62.4598399,30.1315126 L62.155999,31.8682579 C62.7714716,31.7566285 63.1480265,31.6969198 63.8803609,31.5982706 C63.7790806,32.2446825 63.7479174,32.4679412 63.6362494,33.0780087 L61.9482446,33.3194397 L61.6314191,34.9809001 L63.3609748,34.731681 C63.3609748,34.731681 63.1895774,35.8505707 63.1012817,36.3490088 C61.8911121,36.4995787 60.6731517,36.6735128 59.5123238,36.8760033 C59.5123238,36.8760033 60.813386,30.8480173 61.1354054,28.9892585 L64.3763746,28.3298665 Z" id="Fill-64" fill="#0F4B90"></path>
                <path d="M58.0419417,37.141837 L56.2890136,37.4871092 L57.0940621,34.2005329 L56.5487067,33.0219344 L55.1723335,37.7519044 L53.4609563,38.1413092 C54.1725153,35.5816218 54.9022528,33.0193384 55.6138117,30.459651 C56.2033149,30.2623526 56.6421962,30.1273589 57.1615823,29.974193 C57.3511582,30.4051343 57.8134119,31.274805 57.8134119,31.274805 L58.2289207,29.6704573 C58.2289207,29.6704573 59.3144377,29.3848938 59.8597931,29.2602843 L58.0419417,37.141837 Z" id="Fill-66" fill="#0F4B90"></path>
                <path d="M80.3734665,29.2325067 L80.8123478,34.1390069 L81.6823195,34.2090998 L81.2200659,29.3259639 L80.3734665,29.2325067 Z M82.6821377,28.8846385 C82.8561321,30.9432917 83.19633,32.9136799 83.4040844,34.8347435 L82.6379899,36.0029578 L80.1605182,35.8394078 L79.2671741,34.8658958 C79.1087614,32.7657061 78.9996903,30.6473441 78.8698438,28.5393662 C79.0983736,28.2382265 79.4463623,28.0045837 79.71904,27.7112321 L81.7835998,27.9111265 L82.6821377,28.8846385 Z" id="Fill-68" fill="#0F4B90"></path>
                <path d="M90.6866566,29.6203539 C90.9956914,30.7989523 91.5981792,33.2288382 91.5981792,33.2288382 L92.1850855,33.3482556 L92.4707479,32.9562548 L91.7358166,29.9370698 C91.7358166,29.9370698 92.4629571,30.1395603 93.2420362,30.3757992 L94.0211154,33.298931 L93.6549482,33.8259255 L94.335344,34.5735827 L95.3637285,38.1353384 L93.6705298,37.7563177 L93.0057156,35.2589351 L91.9513618,35.0226962 L92.5278804,37.5096947 L90.8113093,37.1722105 C90.2114184,34.4931057 89.1259014,29.2179689 89.1259014,29.2179689 C89.1259014,29.2179689 89.9984701,29.3996912 90.6866566,29.6203539" id="Fill-70" fill="#0F4B90"></path>
                <path d="M85.6242003,30.0105375 L85.9176535,32.0562106 L86.8499515,32.1600518 L86.4552181,30.1611073 L85.6242003,30.0105375 Z M88.0055856,29.9066962 L88.5717164,32.8454043 L88.2445032,33.2971138 L88.8210218,33.9850622 L89.3196324,36.903002 L87.6705815,36.6148425 L87.2213126,34.1849567 L86.2292851,34.0759233 L86.5798707,36.4461004 L84.9334168,36.2384179 L83.8401091,28.177739 L86.9875888,28.7332898 L88.0055856,29.9066962 Z" id="Fill-72" fill="#0F4B90"></path>
                <rect id="Rectangle" x="0" y="0" width="150" height="150"></rect>
            </g>
        </g>
    </g>
</svg>

<svg xmlns="http://www.w3.org/2000/svg" width="150" height="150" fill-rule="evenodd"><path d="M74.28 124.8l-8.15-10.58c-10.37-3.42-17.586-12.785-18.254-23.684L42.82 83.97c-4.807 2.072-9.622 5.353-9.622 5.353L18.036 74.112l6.39-14.006L13 45.27h18.18l3.52-7.663 9.004-3.632.997-2.713L52 34.592l1.735-6.062 1.19-.395c5.773-1.924 12.42-2.957 19.23-2.996.195-.013 2.358.026 2.4.026.254 0 1.317.057 1.317.057 5.757.278 11.17 1.236 16.083 2.85l1.208.397 1.595 5.78 2.628-1.983 14.745 5.24 3.56 7.765h18.272l-11.55 14.896 6.295 13.803-15.4 15.85s-5.646-4.117-9.518-5.652l-4.64 5.984c-.53 11.158-8.123 20.945-18.8 24.23L74.28 124.8z" fill="#fefefe"/><path fill="#b3b1b1" d="M74.294 117.467l52.533-67.7-104.72-.003z"/><g fill="#0f4b90"><path d="M126.828 49.756l-52.533 67.7L22.11 49.753l104.72.003zM17.793 47.63l56.496 73.307 56.873-73.304-113.37-.003z"/><path d="M119.243 54.466l-.018-.044-.042-.026-3.36-2.26 1.288-2.464-.034-.075-4.656-10.2-.065-.023-12.56-4.47-.073.055-3.306 2.523-.036.03-.018.042-.566 1.386s-5.17-1.298-12.764-2.056l-6.46-.532-.332-.023-.078-.008-.055.055-2.464 2.456.003-2.52s-6.99.395-11.57 1.018S53 39.082 53 39.082l-.854-1.828-.057-.03-6.05-2.765-.062.17-.683 1.864-.156-.374-.065-.153-.153.062-8.484 3.4-.03.062L20.872 73.61l12.754 12.77.595-.34 1.543-.9 4.667-2.64.205-.1 8.162-3.6.517-.195c.008 0 .7-.27 1.974-.693 3.405-1.13 12.25-3.762 20.822-3.762h.096a33.79 33.79 0 0 1 1.026.016c5.822.16 12.626 1.397 17.31 2.404 4.508.97 7.897 1.905 8.86 2.175l.65.2c4.264 1.648 9.476 4.367 14.306 7.458l.613.395 12.91-13.292-8.635-19.04z"/></g><path d="M117.856 55.648l-12.408-8.28-2.158-6.057 3.843 1.366 1.553 3.785 5.84 1.872-3.407-7.528-11.024-3.915-2.023 1.565 3.664 11.905 11.798 8.336 3.025 7.534-4.906-2.212-1.685-4.688-6.02-1.773 3.218 10.597 2.955 1.137 7.866 3.598 5.24 2.887 2.566-2.632-7.94-17.497zm-83.68 5.614L38.3 57.57l.987 1.15-4.082 11.737 6.812-2.7 2.958-9.678-2.553-4.216 5.287-5.023 3.1-10.293-3.797-1.706-3.412 9.704-5.47 4.707 4.986-12.578-5.36 2.137L22.986 73.2l2.3 2.316 4.168-2.297 4.708-11.955zM71.6 38.166l-4.53.24L64.94 62.7l5.817-.374.84-24.16zm13.438 19.5l-5.26-.314-.844-14.878 4.456.215-.522-4.1-6-.426-2.683 2.674-.005 18.608 2.812 2.88 8.617.65-.582-5.3zm-29.798-9.9l1.898 9.237-1.228 7 5.573-.906 2.927-24.36-4.204.613-1.382 7.975-1.563-7.508-4.945 1.238-6.88 25.58 6.022-1.667 3.78-17.2zm36.55 8.557l1.48-2 2.16 1.78 2 9.058 6.188 1.776-3.7-13.286-3.828-3.128 2.18-2.905-1.8-6.744-4.62-1.028 1.818 6.8-2.877 3.845-2.124-11.168-4.277-.543 3.158 24.45 5.757.997-1.483-7.895z" fill="#f26729"/><path d="M65.606 67.312s1.78-1.044 5.347-1.438l-.114-2.806-5.825.37.592 3.876m11.33-1.6c1.45.17 3 .644 4.363 1.028 1.23.296 2.558.826 3.643 1.308l.6-4.322-8.508-.657-.1 2.643m-18.757 6.85c1.66-1.233 2.657-2.503 4.404-3.567l-1.096-5.153-5.648.927 2.34 7.793M86.4 68.9c1.618.937 2.88 1.996 4.326 3.4l.286.218 2.28-7.54-5.877-1.044L86.4 68.9zm7.184 6.553l5.435 1.28 4.573-9.04-6.305-1.796-3.703 9.556zm-43.726 1.28L55.106 75l-3.53-9.328-6.07 1.716c1.314 3.126 2.787 6.345 4.35 9.343M41.66 80.1c.314-.27 3.4-1.602 5.5-2.495l-5.145-9.06-6.622 2.66L41.66 80.1zm-7.698 4.08l3.168-1.856-7.212-8.505-4.06 2.23 8.102 8.13zm67.935-6.32c4.33 1.68 10.383 5.073 12.8 6.687 1.1-1.062 7.134-7.383 7.962-8.25a97.83 97.83 0 0 0-15.743-7.445l-5 9.008zM76.103 65.563l-2.067-.073L74 60.47l2.15 2.23z" fill="#b3b1b1"/><path d="M74.508 64.57c-13.437 0-24.325 10.888-24.328 24.32.003 13.43 10.892 24.317 24.328 24.317s24.328-10.888 24.328-24.317-10.894-24.32-24.328-24.32" fill="#0f4b90"/><path d="M76.004 66.4c-1.867.652-3.664 1.6-5.446 2.425-1.215-.727-1.9-.9-2.732-1.44 2.558-.93 5.3-1.07 8.178-.984M93.43 76.713c-5.73-5.774-14.33-5.356-21.625-7.4 0 0 4.293-2.043 6.508-2.6 5.96 1.015 11.73 4.582 15.117 10.008m-32.22.87c-5.505 8.445-6.25 18.85-1.867 27.967-5.667-4.76-9.043-13.972-6.5-22.918 2.083-2.9 4.763-5.483 8.367-5.05m5.894 6.016c2.968 8.82 3.625 18.585 11.3 27.47-6 1.215-11.928-.58-16.66-3.577-5.864-8.55-5.3-21.308.55-29.6 2.857.823 4.412 4.556 4.8 5.7m-4.11-6.643a26.08 26.08 0 0 1 3.025-3.55c12.463 3.518 24.346 16.435 26.382 29.13-.595.958-2.018 2.295-2.973 3.25-3.098 2.783-6.5 4.224-9.785 5.005-5.82-6.036-7.736-13.87-9.793-21.594-1.576-5.926-2.67-10.396-6.84-12.2l-.005-.03zm29.12-.055c-6.02-5.3-14.405-4.63-21.44-7.103a26.91 26.91 0 0 0-3.823 2.835c12.463 3.907 23.772 16.088 26.465 28.676 1.953-2.822 3.134-6.098 3.6-9.574.304-5.337.252-10.195-4.812-14.834m-27.1-3.884c-1.202 1.155-2.104 2.292-3.04 3.62l-.03-.008c-3.298-.737-5.9.968-8 3.094.997-2.518 3.088-5.506 5.3-7.458 2.04.088 3.527.057 5.76.753m.883-.773c1.18-1.05 2.322-1.965 3.74-2.817L66.4 67.844c-2.127.87-4.404 2.002-5.968 3.432 2.418.283 3.45.43 5.425.968" fill="#f26729"/><path d="M71.062 34.757l-.984.98-1.685.1-.628-.545-.792.672-1.836.17-.808-.768 1.06-7.186 1.4-.2-.75 6.345.997-.1.774-6.358 1.374-.135-.574 6.314.976-.1.5-6.282 1.397-.086-.4 7.168zm4.508-7.265l.013 4.522.886-.005-.055-4.496 1.35.065.18 5.07-.854.854-.28.013.042 2.17-1.5-.044-.018-2.173-.3-.023-.914-.932.057-5.044 1.405.023m-11.196.838l-.236 1.485-1.68.317-.304 1.737 1.724-.27-.244 1.48-1.688.24-.317 1.66 1.73-.25-.26 1.617-3.6.527 1.623-7.887 3.24-.66zm-6.334 8.812l-1.753.345.805-3.287-.545-1.18-1.376 4.73-1.7.4 2.153-7.682 1.548-.485.652 1.3.416-1.604 1.63-.4-1.818 7.882zm22.33-7.91l.44 4.907.87.07-.462-4.883-.847-.093zm2.3-.348l.722 5.95-.766 1.168-2.477-.164-.893-.974-.397-6.327c.23-.3.577-.535.85-.828l2.065.2.9.974zm8.004.735l.912 3.608.587.12.286-.392-.735-3.02 1.506.44.78 2.923-.366.527.68.748 1.028 3.562-1.693-.38-.665-2.497-1.054-.236.577 2.487-1.717-.337-1.685-7.954 1.56.402m-5.064.39l.293 2.046.932.104-.395-2-.83-.15zm2.38-.104l.566 2.94-.327.452.577.688.5 2.918-1.65-.288-.45-2.43-.992-.1.35 2.37-1.646-.208-1.093-8.06 3.147.556 1.018 1.173z" fill="#0f4b90"/></svg>
